dist/svg/u1F4C8.svg

<?xml version="1.0" encoding="UTF-8"?><svg id="a" xmlns="http://www.w3.org/2000/svg" viewBox="0 0 40 40"><rect x="0" y="0" width="40" height="40" fill="none"/><path d="M21.503,13.843l-4.987-4.395c-.617-.544-1.543-.544-2.16,0L4.22,18.381c-.352,.31-.553,.756-.553,1.225v12.471c0,1.804,1.463,3.267,3.267,3.267h26.133c1.804,0,3.267-1.463,3.267-3.267V6.293c0-1.406-1.658-2.155-2.713-1.225l-9.957,8.775c-.617,.544-1.543,.544-2.16,0Z" fill="#fdaeb3"/><path d="M33.62,5.068l-9.957,8.775c-.617,.544-1.542,.544-2.16,0l-4.987-4.395c-.617-.544-1.542-.544-2.16,0L4.22,18.381c-.352,.31-.553,.757-.553,1.226v4.263L14.356,14.448c.618-.544,1.543-.544,2.16,0l4.987,4.395c.618,.544,1.543,.544,2.16,0l12.67-11.166v-1.383c0-1.406-1.658-2.155-2.713-1.226Z" fill="#ef4452"/></svg>

<svg id="Layer_1" data-name="Layer 1" xmlns="http://www.w3.org/2000/svg" viewBox="0 0 40 40"><defs><style>.cls-1{fill:none;}.cls-2{fill:#fdaeb3;}.cls-3{fill:#ef4452;}</style></defs><rect class="cls-1" width="40" height="40"/><path class="cls-2" d="M21.5,13.843,16.516,9.448a1.633,1.633,0,0,0-2.16,0L4.22,18.381a1.631,1.631,0,0,0-.553,1.225V32.077a3.266,3.266,0,0,0,3.266,3.266H33.067a3.266,3.266,0,0,0,3.266-3.266V6.293A1.633,1.633,0,0,0,33.62,5.068l-9.957,8.775A1.633,1.633,0,0,1,21.5,13.843Z"/><path class="cls-3" d="M33.62,5.068l-9.957,8.775a1.636,1.636,0,0,1-2.16,0L16.516,9.448a1.633,1.633,0,0,0-2.16,0L4.22,18.381a1.631,1.631,0,0,0-.553,1.225v4.263l10.689-9.421a1.633,1.633,0,0,1,2.16,0L21.5,18.843a1.636,1.636,0,0,0,2.16,0L36.333,7.677V6.293A1.633,1.633,0,0,0,33.62,5.068Z"/></svg>
